X:1
T:Title
%%score { ( 1 3 ) | ( 2 4 ) }
L:1/8
Q:1/4=132
M:4/2
K:G
V:1 treble nm="Grand Piano"
V:3 treble 
V:2 bass 
V:4 bass 
V:1
 [DB]4 [DB]4 [DB]3 [DA] [DG]4 | [Ec]4 c4 z8 | [B,D]3 [B,D] [CE]2 [B,D]2 [DB]2 B2 A3 G | A12 z4 | %4
w: Robert~Harkness * * * *||||
 [DB]4 [DB]4 [DB]3 [DA] [DG]4 | [Ec]4 c4 z8 | [Dd]3 [Ec] B2 A2 B2 G2 A3 F | [B,DG]12 z4 |] %8
w: ||||
V:2
 [G,,G,]4 [G,,G,]4 [G,,G,]3 [A,,F,] [B,,G,]4 | .[C,G,]4 .[E,G,E]4 [G,D]3 [G,C] [G,B,]4 | %2
 [G,,G,]3 [G,,G,] [G,,G,]2 [G,,G,]2 [G,,G,]2 [G,D]2 [F,A,D]3 [E,A,^C] | [F,A,D]4 [D,A,]4 G,4 F,4 | %4
 [G,,G,]4 [G,,G,]4 [G,,G,]3 [A,,F,] [B,,G,]4 | .[C,G,]4 .[E,G,E]4 [G,D]3 [G,CD] [G,B,D]4 | %6
 [B,,G,]3 [C,G,] [D,G,D]2 [E,G,^C]2 [D,G,D]2 [D,B,D]2 [D,=CD]3 [D,A,D] | G,,12 z4 |] %8
V:3
 x16 | z2 D,2 z2 F,2 B3 A G4 | x16 | z4 F4 E4 D4 | x16 | z2 D,2 z2 F,2 B3 A G4 | x16 | x16 |] %8
V:4
 x16 | x16 | x16 | z8 D,8 | x16 | x16 | x16 | x16 |] %8

